X: 361
T:Je sey bien dire
N: Derived from Jos2820-Je_sey_bien_dire.krn
C: Josquin des Prez
%%abc-version 2.0
%%abcx-abcm2ps-target-version 5.9.1 (29 Sep 2008)
%%abc-creator hum2abc beta
%%abcx-conversion-date 2019/02/12 16:15:54
%%abc-edited-by Jesse Rodin
%%abc-edited-by Jesse Rodin; Victoria Chang 2011/08/09
%%abcx-initial-encoding-date 2011/08/09/
%%humdrum-veritas 2346053020
%%humdrum-veritas-data 2668687456
%%linebreak <none>
%%barnumbers 0
L: 1/4
M: 2/1
Q: 1/2=120
%%staves [1 2 3 4]
V: 1 clef=treble
V: 2 clef=treble-8
V: 3 clef=treble-8
V: 4 clef=bass
K: F
[V:1] z4F4 | 
[V:2] c6d2 | 
[V:3] F4A4- | 
[V:4] z8 | 
[V:1] A8 | 
[V:2] e4f4 | 
[V:3] A4F4 | 
[V:4] z8 | 
[V:1] F4B4 | 
[V:2] d6c2 | 
[V:3] B4G4 | 
[V:4] z8 | 
[V:1] G4c4- | 
[V:2] B4c4 | 
[V:3] G4A4- | 
[V:4] z8 | 
[V:1] c2B2A4 | 
[V:2] A6B2 | 
[V:3] A2G2F4 | 
[V:4] F,6F,2 | 
[V:1] G8 | 
[V:2] c8 | 
[V:3] E8 | 
[V:4] C,8 | 
[V:1] z4F4 | 
[V:2] A4d4 | 
[V:3] F4A4- | 
[V:4] D,6D,2 | 
[V:1] A8 | 
[V:2] c4A4 | 
[V:3] A4F4 | 
[V:4] A,,4D,4 | 
[V:1] F4B4 | 
[V:2] d4B4 | 
[V:3] B4G4 | 
[V:4] z4_E,4 | 
[V:1] G4c4- | 
[V:2] c8 | 
[V:3] G4A4- | 
[V:4] _E,4F,3E, | 
[V:1] c2BAB4 | 
[V:2] z4G4 | 
[V:3] A2GFG4 | 
[V:4] C,2F,4E,2 | 
[V:1] A6c2- | 
[V:2] A4F4 | 
[V:3] F8 | 
[V:4] F,2C3B,A,2- | 
[V:1] cBA2G2A2- | 
[V:2] c4z2c2 | 
[V:3] z8 | 
[V:4] A,G,F,2E,2F,2- | 
[V:1] A2GFA2G2- | 
[V:2] A2B2c4 | 
[V:3] z8 | 
[V:4] F,2E,D,C,4 | 
[V:1] GFF4E2 | 
[V:2] F4G4 | 
[V:3] z8 | 
[V:4] D,4C,4 | 
[V:1] F8 | 
[V:2] F8 | 
[V:3] z8 | 
[V:4] F,,2B,,4A,,G,, | 
[V:1] A4A4 | 
[V:2] z4F4 | 
[V:3] F4c4- | 
[V:4] F,,8 | 
[V:1] G6A2 | 
[V:2] G4C4 | 
[V:3] c4_e4 | 
[V:4] C,4G,4- | 
[V:1] B4B4 | 
[V:2] z4G4 | 
[V:3] d8 | 
[V:4] G,4B,4 | 
[V:1] c4c4 | 
[V:2] A4F4 | 
[V:3] c4A4 | 
[V:4] A,8 | 
[V:1] B4B4 | 
[V:2] G3AB2c2 | 
[V:3] B4G4 | 
[V:4] G,4_E,4 | 
[V:1] A2A4GF | 
[V:2] d2c4B2 | 
[V:3] F8 | 
[V:4] F,4D,4 | 
[V:1] E2F4E2 | 
[V:2] c2A2G4 | 
[V:3] z8 | 
[V:4] C,8 | 
[V:1] F8 | 
[V:2] F4B4 | 
[V:3] z8 | 
[V:4] F,,2B,,4A,,G,, | 
[V:1] A4A4 | 
[V:2] A4F4 | 
[V:3] F4c4- | 
[V:4] F,,8 | 
[V:1] G6A2 | 
[V:2] G4B4- | 
[V:3] c4_e4 | 
[V:4] C,4G,4- | 
[V:1] B4B4 | 
[V:2] B2A2G4 | 
[V:3] d8 | 
[V:4] G,4B,4 | 
[V:1] c4c4 | 
[V:2] A4F4 | 
[V:3] c4A4 | 
[V:4] A,8 | 
[V:1] B4B4 | 
[V:2] z4G4 | 
[V:3] B4G4 | 
[V:4] G,4_E,4 | 
[V:1] A2A4GF | 
[V:2] A2c4B2 | 
[V:3] F8 | 
[V:4] F,4D,4 | 
[V:1] E2F4E2 | 
[V:2] c2A2G4 | 
[V:3] z8 | 
[V:4] C,8 | 
[V:1] F6ED | 
[V:2] F8 | 
[V:3] z8 | 
[V:4] z4F,,4 | 
[V:1] C8 | 
[V:2] F4A4- | 
[V:3] z8 | 
[V:4] A,,8 | 
[V:1] z4D4 | 
[V:2] A4F4 | 
[V:3] z8 | 
[V:4] F,,4B,,4 | 
[V:1] D3CD2_E2- | 
[V:2] B4G4 | 
[V:3] z8 | 
[V:4] G,,3A,,B,,2C,2- | 
[V:1] EDCB,C2D2- | 
[V:2] G4A4- | 
[V:3] z8 | 
[V:4] C,B,,A,,G,,F,,2F,2- | 
[V:1] D2C4B,2 | 
[V:2] A2G2F4 | 
[V:3] z8 | 
[V:4] F,E,D,C,D,4 | 
[V:1] C2B,A,G,4 | 
[V:2] E8 | 
[V:3] z8 | 
[V:4] C,3B,,C,4 | 
[V:1] F,2z2F4 | 
[V:2] c6d2 | 
[V:3] F4A4- | 
[V:4] F,,4z4 | 
[V:1] A8 | 
[V:2] e4f4 | 
[V:3] A4F4 | 
[V:4] z8 | 
[V:1] F4B4 | 
[V:2] d6c2 | 
[V:3] B4G4 | 
[V:4] z8 | 
[V:1] G4c4- | 
[V:2] B4c4 | 
[V:3] G4A4- | 
[V:4] z8 | 
[V:1] c2B2A4 | 
[V:2] A6B2 | 
[V:3] A2G2F4 | 
[V:4] F,6F,2 | 
[V:1] G8 | 
[V:2] c8 | 
[V:3] E8 | 
[V:4] C,8 | 
[V:1] z4F4 | 
[V:2] A4d4 | 
[V:3] F4A4- | 
[V:4] D,6D,2 | 
[V:1] A8 | 
[V:2] c4A4 | 
[V:3] A4F4 | 
[V:4] A,,4D,4 | 
[V:1] F4B4 | 
[V:2] d4B4 | 
[V:3] B4G4 | 
[V:4] z4_E,4 | 
[V:1] G4c4- | 
[V:2] c8 | 
[V:3] G4A4- | 
[V:4] _E,4F,3E, | 
[V:1] c2BAB4 | 
[V:2] z4G4 | 
[V:3] A2GFG4 | 
[V:4] C,2F,4E,2 | 
[V:1] A6c2- | 
[V:2] A4F4 | 
[V:3] F8 | 
[V:4] F,2C3B,A,2- | 
[V:1] cBA2G2A2- | 
[V:2] c4z2c2 | 
[V:3] z8 | 
[V:4] A,G,F,2E,2F,2- | 
[V:1] A2GFA2G2- | 
[V:2] A2B2c4 | 
[V:3] z4z2c2 | 
[V:4] F,2E,D,C,4 | 
[V:1] GFF4E2 | 
[V:2] F4G4 | 
[V:3] A2B2c4 | 
[V:4] D,4C,4 | 
[V:1] F8- | 
[V:2] A6B2 | 
[V:3] F8- | 
[V:4] z2D,3C,B,,2 | 
[V:1] F8- | 
[V:2] c2d4c2- | 
[V:3] F8- | 
[V:4] A,,2B,,4A,,2 | 
[V:1] F8- | 
[V:2] cBABA2F2 | 
[V:3] F8- | 
[V:4] F,,8- | 
[V:1] F8 |]  
[V:2] c8 |]  
[V:3] F8 |]  
[V:4] F,,8 |]  



